rocket-bi-web/src/assets/icon/charts/ic-spider-chart.svg

<svg xmlns="http://www.w3.org/2000/svg" width="48" height="48" viewBox="0 0 48 48">
    <g fill="none" fill-rule="evenodd">
        <g>
            <g>
                <g>
                    <g>
                        <g transform="translate(-455 -546) translate(372 106) translate(0 109) translate(48 307) translate(35 24)">
                            <rect width="48" height="48" opacity=".1" rx="2"/>
                            <path fill="#6D6F86" fill-rule="nonzero" d="M24 0l20.785 12v24L24 48 3.215 36V12L24 0zm0 1.155L4.215 12.577v22.845L24 46.844l19.784-11.422V12.577L24 1.155zM24 8l13.856 8v16L24 40l-13.856-8V16L24 8zm0 1.155l-12.857 7.422v14.845L24 38.844l12.856-7.422V16.577L24 9.155zM24 16l6.928 4v8L24 32l-6.928-4v-8L24 16zm0 1.155l-5.929 3.422v6.845L24 30.844l5.928-3.422v-6.845L24 17.155z"/>
                            <path stroke="#6D6F86" d="M23.5.5L23.5 47.5M3.5 12.5L43.5 35.5M44.5 12.5L4.5 35.5"/>
                            <path fill="#57F" fill-rule="nonzero" d="M26 6v2.119L35.026 15H38v4h-1.613l-2.667 8H34v4h-3.002L26 34.748V37h-4v-1.436l-9-2.076V34H9v-4h1.405l2.143-10H12v-4h2.61L22 8.75V6h4zm-.833 4h-1.585L16 17.438V20h-1.407L12.45 30H13v1.435l9 2.076V33h2.998L30 29.249V27h1.612l2.667-8H34v-2.267L25.167 10z"/>
                            <path fill="#B7C5FF" fill-rule="nonzero" d="M24 12c1.105 0 2 .895 2 2 0 .125-.012.248-.034.367l4.37 3.746c.208-.073.431-.113.664-.113 1.105 0 2 .895 2 2 0 .25-.046.49-.13.71l10.218 12.51c.273-.14.583-.22.912-.22 1.105 0 2 .895 2 2s-.895 2-2 2c-.634 0-1.199-.295-1.565-.755l-16.507 4.288C25.695 41.379 24.92 42 24 42c-1.105 0-2-.895-2-2 0-.407.122-.786.33-1.101l-4.45-8.903C16.83 29.934 16 29.064 16 28c0-.84.519-1.56 1.254-1.856l.51-3.57C17.3 22.206 17 21.637 17 21c0-1.105.895-2 2-2 .065 0 .13.003.193.01l2.986-4.182C22.064 14.576 22 14.295 22 14c0-1.105.895-2 2-2zm.664 3.887c-.208.073-.431.113-.664.113-.066 0-.13-.003-.195-.01l-2.985 4.18c.116.253.18.534.18.83 0 .842-.52 1.563-1.257 1.857l-.51 3.568c.467.366.767.936.767 1.575 0 .407-.122.786-.331 1.102l4.45 8.902c.51.03.968.25 1.305.591l16.065-4.171-10.168-12.45c-.105.017-.212.026-.321.026-1.105 0-2-.895-2-2 0-.125.012-.248.034-.367z"/>
                        </g>
                    </g>
                </g>
            </g>
        </g>
    </g>
</svg>

<svg width="48" height="48" viewBox="0 0 48 48" fill="none" xmlns="http://www.w3.org/2000/svg">
<g clip-path="url(#clip0_3860_75930)">
<path d="M24.0001 0L44.7851 12V36L24.0001 48L3.21509 36V12L24.0001 0ZM24.0001 1.155L4.21509 12.577V35.422L24.0001 46.844L43.7841 35.422V12.577L24.0001 1.155ZM24.0001 8L37.8561 16V32L24.0001 40L10.1441 32V16L24.0001 8ZM24.0001 9.155L11.1431 16.577V31.422L24.0001 38.844L36.8561 31.422V16.577L24.0001 9.155ZM24.0001 16L30.9281 20V28L24.0001 32L17.0721 28V20L24.0001 16ZM24.0001 17.155L18.0711 20.577V27.422L24.0001 30.844L29.9281 27.422V20.577L24.0001 17.155Z" fill="#D6D6D6"/>
<path d="M23.5 0.5V47.5M3.5 12.5L43.5 35.5M44.5 12.5L4.5 35.5" stroke="#D6D6D6"/>
<path d="M26 6V8.119L35.026 15H38V19H36.387L33.72 27H34V31H30.998L26 34.748V37H22V35.564L13 33.488V34H9V30H10.405L12.548 20H12V16H14.61L22 8.75V6H26ZM25.167 10H23.582L16 17.438V20H14.593L12.45 30H13V31.435L22 33.511V33H24.998L30 29.249V27H31.612L34.279 19H34V16.733L25.167 10Z" fill="url(#paint0_linear_3860_75930)"/>
<path d="M24 12C25.105 12 26 12.895 26 14C26 14.125 25.988 14.248 25.966 14.367L30.336 18.113C30.544 18.04 30.767 18 31 18C32.105 18 33 18.895 33 20C33 20.25 32.954 20.49 32.87 20.71L43.088 33.22C43.361 33.08 43.671 33 44 33C45.105 33 46 33.895 46 35C46 36.105 45.105 37 44 37C43.366 37 42.801 36.705 42.435 36.245L25.928 40.533C25.695 41.379 24.92 42 24 42C22.895 42 22 41.105 22 40C22 39.593 22.122 39.214 22.33 38.899L17.88 29.996C16.83 29.934 16 29.064 16 28C16 27.16 16.519 26.44 17.254 26.144L17.764 22.574C17.3 22.206 17 21.637 17 21C17 19.895 17.895 19 19 19C19.065 19 19.13 19.003 19.193 19.01L22.179 14.828C22.064 14.576 22 14.295 22 14C22 12.895 22.895 12 24 12ZM24.664 15.887C24.456 15.96 24.233 16 24 16C23.934 16 23.87 15.997 23.805 15.99L20.82 20.17C20.936 20.423 21 20.704 21 21C21 21.842 20.48 22.563 19.743 22.857L19.233 26.425C19.7 26.791 20 27.361 20 28C20 28.407 19.878 28.786 19.669 29.102L24.119 38.004C24.629 38.034 25.087 38.254 25.424 38.595L41.489 34.424L31.321 21.974C31.216 21.991 31.109 22 31 22C29.895 22 29 21.105 29 20C29 19.875 29.012 19.752 29.034 19.633L24.664 15.887Z" fill="url(#paint1_linear_3860_75930)"/>
</g>
<defs>
<linearGradient id="paint0_linear_3860_75930" x1="9" y1="21.6476" x2="38" y2="21.6476" gradientUnits="userSpaceOnUse">
<stop stop-color="#A855F7"/>
<stop offset="1" stop-color="#3B82F6"/>
</linearGradient>
<linearGradient id="paint1_linear_3860_75930" x1="8.38" y1="35.25" x2="41.2007" y2="33.9858" gradientUnits="userSpaceOnUse">
<stop stop-color="#F377B3"/>
<stop offset="1" stop-color="#FEB3DD"/>
</linearGradient>
<clipPath id="clip0_3860_75930">
<rect width="48" height="48" fill="white"/>
</clipPath>
</defs>
</svg>
